X: 765
T: the Western Lasses   #2
R: reel
%S: s:4 b:24(6+7+7)
B: Francis O'Neill: "The Dance Music of Ireland" (1907) #765
Z: Frank Nordberg - http://www.musicaviva.com
F: http://www.musicaviva.com/abc/tunes/ireland/oneill-1001/0765/oneill-1001-0765-1.abc
%m: Tn = (3n/o/n/
M: C|
L: 1/8
K: C
"^A"[|] (TGF) |: EGcG AGcG | EGcG (TED)(DG) |[1 EGcG AGcG | EGDF (EC)(CG) :|[2 EGAB cdef |
| gefd (ec)c2 "^B"|[| e3e d2(dc) | AcGc AcGc | e3e d2(dc) | (3(ABc) GE (TED)D2 ||
|| efec dedc | (3(ABc) Gc (3(ABc) Gc | (ea{b}ag) egdc | (3(ABc) GF (TEC)C2 "^C"|: efge c2(cd) |
| (ea{b}ag) aged | (3(efg) ed [1 (TcB)cd | (ea{b}ag) (3(efg) dg :|[2 cBcG | (3(ABc) GF (EC)C2 |]
